X:20
T:The Iron Man
C:J. S. Skinner
L:1/8
M:4/4
Q:1/4=90
K:A
%%MIDI channel 1
%%MIDI program 72
%%MIDI transpose 8
%%MIDI grace 1/8
%%MIDI ratio 3 1
|:E|A2 c>A B>G A>B|c2 e>c d>B c>e|f2 df e2 ce|((3dcB) ((3cBA) Gc|
A2 c>A B>G A>B|c2 e>c d>B c<e|f2 d>f e<a c>A|(3Bcd (3dcB c<A A:|
g|a>A g>A f>A e>A|(3cBA e>g a>e c>A|d>E c>E B>E c>E|(3dcB (3cBA (3Bcd (3efg|
a>A g>A f>A e>A|(3cBA e>g a>e c>A|d2f>d (3eag (3fed|(3cBA (3GAB A3|]
